icons/badge/remove/shield.svg

<svg width="32" height="32" viewBox="0 0 32 32" xmlns="http://www.w3.org/2000/svg"><path fill-rule="evenodd" clip-rule="evenodd" d="M16.5192 1.1041C16.179 1.01262 15.8207 1.01262 15.4805 1.1041L3.48053 4.33085C2.60701 4.56573 1.99988 5.35769 1.99988 6.26224V12C1.99988 21.4849 8.334 28.3497 15.7252 30.4615L15.9999 30.54L16.2746 30.4615C23.6658 28.3497 29.9999 21.4849 29.9999 12V6.26224C29.9999 5.35769 29.3927 4.56573 28.5192 4.33085L16.5192 1.1041ZM3.99988 6.26224L15.9999 3.03549L27.9999 6.26224L27.9999 12C27.9999 20.3968 22.4902 26.4794 15.9999 28.4573C9.50951 26.4794 3.99988 20.3968 3.99988 12L3.99988 6.26224ZM9 16H23V14H9V16Z"/></svg>

<svg viewBox="0 0 32 32" xmlns="http://www.w3.org/2000/svg"><path fill-rule="evenodd" d="M16.52 1.104a2 2 0 00-1.04 0l-12 3.227A2 2 0 002 6.262V12c0 9.485 6.334 16.35 13.725 18.462l.275.078.275-.078C23.665 28.35 30 21.485 30 12V6.262a2 2 0 00-1.48-1.931l-12-3.227zM4 6.262l12-3.227 12 3.227V12c0 8.397-5.51 14.48-12 16.457C9.51 26.48 4 20.397 4 12V6.262zM9 16h14v-2H9v2z"/></svg>
